img/github-social.svg

<svg width="120" height="120" viewBox="0 0 120 120" fill="none" xmlns="http://www.w3.org/2000/svg">
<path d="M13.3333 0H106.667C110.203 0 113.594 1.40476 116.095 3.90524C118.595 6.40573 120 9.79711 120 13.3333V106.667C120 110.203 118.595 113.594 116.095 116.095C113.594 118.595 110.203 120 106.667 120H77.0667C74.9333 119.533 74.8667 115.467 74.8667 114.067L74.9333 97.6C74.9333 92 73 88.3333 70.8667 86.4667C84.2667 85 98.2667 80 98.2667 56.8667C98.2667 50.3333 95.9333 44.9333 92.1333 40.7333C92.7333 39.2667 94.8 33.1333 91.5333 24.8667C91.5333 24.8667 86.4667 23.3333 75 31.0667C70.2 29.7333 65.1333 29.0667 60 29C54.9333 29.0667 49.7333 29.7333 45 31.0667C33.5333 23.3333 28.4667 24.8667 28.4667 24.8667C25.2 33.1333 27.2667 39.2667 27.8667 40.7333C24.0667 44.9333 21.7333 50.3333 21.7333 56.8667C21.7333 80 35.7333 85 49.0667 86.6667C47.3333 88 45.8 90.6667 45.2667 94.5333C41.8 96.0667 33.1333 98.7333 27.8 89.5333C27.8 89.5333 24.6 83.8 18.6 83.3333C18.6 83.3333 12.7333 83.3333 18.2 87C18.2 87 22.1333 88.8667 24.8667 95.8C24.8667 95.8 28.3333 107.467 45.0667 103.867L45.1333 114.067C45.1333 115.467 45 119.533 42.8667 120H13.3333C9.79711 120 6.40573 118.595 3.90524 116.095C1.40476 113.594 0 110.203 0 106.667V13.3333C0 9.79711 1.40476 6.40573 3.90524 3.90524C6.40573 1.40476 9.79711 0 13.3333 0Z" fill="white"/>
</svg>

<svg xmlns="http://www.w3.org/2000/svg" width="120" height="120" fill="none"><path fill="#fff" d="M13.333 0h93.334A13.334 13.334 0 0 1 120 13.333v93.334A13.336 13.336 0 0 1 106.667 120h-29.6c-2.134-.467-2.2-4.533-2.2-5.933l.066-16.467c0-5.6-1.933-9.267-4.066-11.133 13.4-1.467 27.4-6.467 27.4-29.6 0-6.534-2.334-11.934-6.134-16.134.6-1.466 2.667-7.6-.6-15.866 0 0-5.066-1.534-16.533 6.2-4.8-1.334-9.867-2-15-2.067-5.067.067-10.267.733-15 2.067-11.467-7.734-16.533-6.2-16.533-6.2-3.267 8.266-1.2 14.4-.6 15.866-3.8 4.2-6.134 9.6-6.134 16.134 0 23.133 14 28.133 27.334 29.8-1.734 1.333-3.267 4-3.8 7.866-3.467 1.534-12.134 4.2-17.467-5 0 0-3.2-5.733-9.2-6.2 0 0-5.867 0-.4 3.667 0 0 3.933 1.867 6.667 8.8 0 0 3.466 11.667 20.2 8.067l.066 10.2c0 1.4-.133 5.466-2.266 5.933H13.333A13.335 13.335 0 0 1 0 106.667V13.333A13.333 13.333 0 0 1 13.333 0Z"/></svg>
